X: 1
T: Trenton
P: piffero primo b0067
O: Roy Watrous
%R: reel
F: http://ancients.sudburymuster.org/mus/ssp/pdf/draft111F.pdf
Z: 2019 John Chambers <jc:trillian.mit.edu>
M: 2/4
L: 1/16
K: Bm
F2 |\
TB3c dcde | fefg f2de | Tf3g fedc | BcdB c2F2 |\
TB3c dcde | fefg f2ed | cafa eace | d2B2 B2 :: fg |
afdf gecA | dcde f2dc | Bfcf dfcf | BcdB F2fg |\
afdf gecA | dcde f2ed | cafa eace | d2B2 B2 :|


